X:6
T: Madarasi csárda előtt mi történt?
L:1/8
M:2/4
K:C
E>D E<F | G>C E<D | C<C C z |
c>A B<c | d>G B<A | G<G G z |
c>G E<C | A>G A<B | c<E G z |
e>d e<f | g>c e<d | c<c c z |

